!!!!SEGMENT: pl-sa--l-1636--013_anonim--keyboard-piece.krn
!!!cenid: 17xx:720
!!!COM: Anonim
!!!COM-rismid: pe30004985
!!!CDT:
!!!CNT:
!!!OTL: [Keyboard piece]
!!!PDT:
!!!AGN: Secular
!!!SMS-siglum: PL-SA
!!!SMS-shelfmark: L 1636
!!!SMS-shelfwork: 013 W
!!!SMS-variant:
!!!SMS-altvar:
!!!NIFC-rismid: 1001076397
!!!URL-scan: http://repozytorium.nifc.pl/skany/pl-sa-nut--l1636
!!!ONB-nifc: 4v, skan 0008, s. 1
**kern	**kern
*part1	*part1
*staff2	*staff1
*Ipiano	*Iempty
*I"Piano	*
*I'P-no	*
*clefC4	*clefC1
*k[]	*k[]
*d:	*d:
*M2/2	*M2/2
*met(c|)	*met(c|)
=1	=1
1r	4.a\
.	8a\
.	8g/L
.	8f/
.	8g/
.	8e/J
=2	=2
4.d\	8f/L
.	8g/J
.	8a\L
8d\	8b\J
8c\L	4.cc\
8B\	.
8c\	.
8A\J	8cc\
=3	=3
8B-\L	4.b\
8c\	.
8d\	.
8e\J	8b\
8f\L	8a\L
8e\	8g\
8f\	8a\
8d\J	8f\J
=4	=4
*	*^
8e\L	8g/L	4ryy
8d\J	8f/J	.
4r	4f/	4d\
4.e\	2e/	4d\
.	.	4c#X\
8e\	.	.
*	*v	*v
=5	=5
8d\L	2d/
8c\	.
8d\	.
8B\J	.
2c\	4.a\
.	8a\
=6	=6
*	*^
8B\L	8g/L	2ryy
8A\	8f/	.
8B\	8g/	.
8A\J	8e/J	.
16A/LL	2f/	2d\
16G/	.	.
16F/	.	.
16E/J	.	.
8F/	.	.
16E/L	.	.
16D/JJ	.	.
=7	=7	=7
*	*	*^
2E/	2e/	4d\	4ryy
.	.	4c#X\	8A\L
.	.	.	8G\J
2A/ 2AA/	2d/	2A/	2F/
*	*v	*v	*v
=:|!	=:|!
*-	*-
!!!system-decoration: s1,s2
!!!EED: Leszek Kubiak
!!!EST: 2020-12-07
!!!AIN: 1 piano
!!!ENC: Tomasz Grochalski
!!!END: 2020-06-11
